X:80
T:Cottilion. LIT.080
M:2/4
Q:1/4=90
L:1/8
B:Wm. Litten MS, 1802
Z:Village Music Project 2017 Anne Wride
K:G
GA/G/ Bd/B/ | Ac/F/ G/B/D | GA/G/ Bd/B/ | A/c/F G2 :|
|:A/F/D B/G/D | c/A/F d/B/G | A/F/D B/G/D | c/A/F G2 :|
|: g/f/e dB/B/ | cA/F/ dB/B/ | g/f/e dB/B/ | c/A/d G2 :|
|: d/d/B/e/ c2 | A/F/d/B/G2 | d/d/B/e/c2 | A/F/d G2 :|

